source/images/logo/logo-device-footer.svg

<svg width="145" height="36" viewBox="0 0 145 36" fill="none" xmlns="http://www.w3.org/2000/svg">
<path d="M27.2 0V35.3H19.6V32.9C17.9 34.8 15.5 36 12.1 36C5.5 36 0 30.2 0 22.7C0 15.2 5.5 9.4 12.1 9.4C15.5 9.4 18 10.6 19.6 12.5V0H27.2ZM19.6 22.7C19.6 18.9 17.1 16.5 13.6 16.5C10.1 16.5 7.6 18.9 7.6 22.7C7.6 26.5 10.1 28.9 13.6 28.9C17.1 28.8 19.6 26.5 19.6 22.7Z" fill="#FFC700"/>
<path d="M43.7 29.1999C45.8 29.1999 47.5 28.3999 48.5 27.2999L54.6 30.7999C52.1 34.1999 48.4 35.9999 43.6 35.9999C35 35.9999 29.6 30.1999 29.6 22.6999C29.6 15.1999 35 9.3999 43 9.3999C50.4 9.3999 55.8 15.0999 55.8 22.6999C55.8 23.7999 55.7 24.7999 55.5 25.6999H37.6C38.6 28.2999 40.9 29.1999 43.7 29.1999ZM48.3 20.0999C47.5 17.1999 45.2 16.0999 42.9 16.0999C40 16.0999 38.1 17.4999 37.4 20.0999H48.3Z" fill="#FFC700"/>
<path d="M82.1 10.1001L72.8 35.3001H64.2L54.9 10.1001H63.3L68.6 26.1001L73.9 10.1001C73.9 10.1001 82.1 10.1001 82.1 10.1001Z" fill="#FFC700"/>
<path d="M83.4 10.1001H91V35.3001H83.4V10.1001Z" fill="#FFC700"/>
<path d="M93.6 22.6999C93.6 15.1999 99.3 9.3999 107 9.3999C111.9 9.3999 116.2 11.9999 118.4 15.8999L111.8 19.6999C110.9 17.8999 109.1 16.8999 106.9 16.8999C103.6 16.8999 101.2 19.2999 101.2 22.6999C101.2 26.1999 103.6 28.4999 106.9 28.4999C109.1 28.4999 111 27.3999 111.8 25.6999L118.4 29.4999C116.3 33.3999 112 35.9999 107 35.9999C99.3 35.9999 93.6 30.1999 93.6 22.6999Z" fill="#FFC700"/>
<path d="M132.8 29.1999C134.9 29.1999 136.6 28.3999 137.6 27.2999L143.7 30.7999C141.2 34.1999 137.5 35.9999 132.7 35.9999C124.1 35.9999 118.7 30.1999 118.7 22.6999C118.7 15.1999 124.2 9.3999 132.1 9.3999C139.5 9.3999 144.9 15.0999 144.9 22.6999C144.9 23.7999 144.8 24.7999 144.6 25.6999H126.7C127.7 28.2999 130 29.1999 132.8 29.1999ZM137.5 20.0999C136.7 17.1999 134.4 16.0999 132.1 16.0999C129.2 16.0999 127.3 17.4999 126.6 20.0999H137.5Z" fill="#FFC700"/>
<path d="M83.4 0V10.1L91 0H83.4Z" fill="#FFC700"/>
</svg>

<svg width="145" height="36" viewBox="0 0 145 36" fill="none" xmlns="http://www.w3.org/2000/svg"><path d="M27.2 0v35.3h-7.6v-2.4c-1.7 1.9-4.1 3.1-7.5 3.1C5.5 36 0 30.2 0 22.7 0 15.2 5.5 9.4 12.1 9.4c3.4 0 5.9 1.2 7.5 3.1V0h7.6zm-7.6 22.7c0-3.8-2.5-6.2-6-6.2s-6 2.4-6 6.2c0 3.8 2.5 6.2 6 6.2 3.5-.1 6-2.4 6-6.2zm24.1 6.5c2.1 0 3.8-.8 4.8-1.9l6.1 3.5c-2.5 3.4-6.2 5.2-11 5.2-8.6 0-14-5.8-14-13.3C29.6 15.2 35 9.4 43 9.4c7.4 0 12.8 5.7 12.8 13.3 0 1.1-.1 2.1-.3 3H37.6c1 2.6 3.3 3.5 6.1 3.5zm4.6-9.1c-.8-2.9-3.1-4-5.4-4-2.9 0-4.8 1.4-5.5 4h10.9zm33.8-10l-9.3 25.2h-8.6l-9.3-25.2h8.4l5.3 16 5.3-16h8.2zm1.3 0H91v25.2h-7.6V10.1zm10.2 12.6c0-7.5 5.7-13.3 13.4-13.3 4.9 0 9.2 2.6 11.4 6.5l-6.6 3.8c-.9-1.8-2.7-2.8-4.9-2.8-3.3 0-5.7 2.4-5.7 5.8 0 3.5 2.4 5.8 5.7 5.8 2.2 0 4.1-1.1 4.9-2.8l6.6 3.8C116.3 33.4 112 36 107 36c-7.7 0-13.4-5.8-13.4-13.3zm39.2 6.5c2.1 0 3.8-.8 4.8-1.9l6.1 3.5c-2.5 3.4-6.2 5.2-11 5.2-8.6 0-14-5.8-14-13.3 0-7.5 5.5-13.3 13.4-13.3 7.4 0 12.8 5.7 12.8 13.3 0 1.1-.1 2.1-.3 3h-17.9c1 2.6 3.3 3.5 6.1 3.5zm4.7-9.1c-.8-2.9-3.1-4-5.4-4-2.9 0-4.8 1.4-5.5 4h10.9zM83.4 0v10.1L91 0h-7.6z" fill="#FFC700"/></svg>
